!!!SOCIAL_FUNCTION:	songs of the drum-presentation ceremony
!!!PDT:	1913
!!!OTL: No_79_Warriors'_Song.krn
!!!REG: Great_Lakes
!!!LANG: Non-Tone
!!!LING_GROUP: Algonquin
**kern	**kern
*staff2	*staff1
*clefF4	*clefF4
*k[f#]	*k[f#]
*M2/4	*M2/4
16r	16e\
=1	=1
12GG^/	8.d\L
12r	.
12GG/	.
.	16d\Jk
12GG^/	8.e\L
12r	.
12GG/	.
.	16e\Jk
=2	=2
2r	8.d\L
.	16B\Jk
.	8A\L
.	8B\J
=3	=3
2r	4A\
.	8.A\L
.	16d\Jk
=4	=4
2r	8.d\L
.	16d\Jk
.	8.e\L
.	16e\Jk
=5	=5
2r	8.d\L
.	16B\Jk
.	8A\L
.	8B\J
=6	=6
2r	16B\LK
.	8.A\J
.	8.A\L
.	16B\Jk
=7	=7
2r	8.B\L
.	16B\Jk
.	4A\
=8||	=8||
*M3/4	*M3/4
2.r	12A\L
.	12G\
.	12G\J
.	4G\
.	4G\
=9	=9
2.r	8D\L
.	8E\J
.	4D\
.	8.D\L
.	16G\Jk
=10||	=10||
*M2/4	*M2/4
2r	8.G\L
.	16G\Jk
.	8.E\L
.	16E\Jk
=11||	=11||
*M3/4	*M3/4
2.r	8D\L
.	8E\J
.	4D\
.	8.D\L
.	16D\Jk
=12||	=12||
*M2/4	*M2/4
2r	[2D\
=13	=13
2r	4D\_
.	8.D\L]
.	16A\Jk
=14||	=14||
*M3/4	*M3/4
2.r	8.A\L
.	16A\Jk
.	8.B\L
.	16B\Jk
.	8.A\L
.	16A\Jk
=15	=15
2.r	16A\LK
.	8.G\J
.	4G\
.	8.G\L
.	16G\Jk
=16	=16
2.r	8D\L
.	8E\J
.	4D\
.	8.D\L
.	16G\Jk
=17||	=17||
*M2/4	*M2/4
2r	8.G\L
.	16G\Jk
.	8.E\L
.	16E\Jk
=18||	=18||
*M3/4	*M3/4
2.r	8D\L
.	8E\J
.	4D\
.	8.D\L
.	16D\Jk
=19||	=19||
*M2/4	*M2/4
2r	[2D\
=20	=20
2r	2D\]
==	==
*-	*-
